icons/svg/shaders/h_fell2_night.svg

<svg width="22" height="22" version="1.1" viewBox="0 0 22 22" xmlns="http://www.w3.org/2000/svg">
 <path d="m5 7.875 2-5 3 3-5 2z" clip-rule="evenodd" fill="#607060" fill-rule="evenodd"/>
 <path d="m13.75 17.318 5.3839 0.1171-1.7556 3.8623-3.6283-3.9794z" clip-rule="evenodd" fill="#607060" fill-rule="evenodd"/>
 <g fill="#929292" stroke="#607060" stroke-linecap="round">
  <path d="m19.421 10.247v-2.8532"/>
  <path d="m2.5054 20.333v-2.8533"/>
  <path d="m8.3125 12.677v-2.8532"/>
 </g>
</svg>

<?xml version="1.0" encoding="UTF-8" standalone="no"?>
<svg
   xmlns:dc="http://purl.org/dc/elements/1.1/"
   xmlns:cc="http://creativecommons.org/ns#"
   xmlns:rdf="http://www.w3.org/1999/02/22-rdf-syntax-ns#"
   xmlns:svg="http://www.w3.org/2000/svg"
   xmlns="http://www.w3.org/2000/svg"
   xmlns:sodipodi="http://sodipodi.sourceforge.net/DTD/sodipodi-0.dtd"
   xmlns:inkscape="http://www.inkscape.org/namespaces/inkscape"
   width="22"
   height="22"
   viewBox="0 0 22 22"
   fill="none"
   version="1.1"
   id="svg12"
   sodipodi:docname="h_fell2_night.svg"
   inkscape:version="0.92.5 (2060ec1f9f, 2020-04-08)">
  <metadata
     id="metadata18">
    <rdf:RDF>
      <cc:Work
         rdf:about="">
        <dc:format>image/svg+xml</dc:format>
        <dc:type
           rdf:resource="http://purl.org/dc/dcmitype/StillImage" />
      </cc:Work>
    </rdf:RDF>
  </metadata>
  <defs
     id="defs16" />
  <sodipodi:namedview
     pagecolor="#ffffff"
     bordercolor="#666666"
     borderopacity="1"
     objecttolerance="10"
     gridtolerance="10"
     guidetolerance="10"
     inkscape:pageopacity="0"
     inkscape:pageshadow="2"
     inkscape:window-width="1920"
     inkscape:window-height="1014"
     id="namedview14"
     showgrid="false"
     inkscape:zoom="10.727273"
     inkscape:cx="-2.7499997"
     inkscape:cy="7.3644071"
     inkscape:window-x="1920"
     inkscape:window-y="0"
     inkscape:window-maximized="1"
     inkscape:current-layer="svg12" />
  <path
     fill-rule="evenodd"
     clip-rule="evenodd"
     d="M5 7.875L7 2.875L10 5.875L5 7.875Z"
     fill="#D4D4D4"
     id="path2"
     style="fill:#607060;fill-opacity:1" />
  <path
     fill-rule="evenodd"
     clip-rule="evenodd"
     d="M13.7501 17.3182L19.134 17.4353L17.3784 21.2976L13.7501 17.3182Z"
     fill="#D4D4D4"
     id="path4"
     style="fill:#607060;fill-opacity:1" />
  <path
     d="M19.4214 10.2471V7.39386"
     stroke="#D4D4D4"
     stroke-linecap="round"
     id="path6"
     style="fill:#929292;fill-opacity:1;stroke:#607060;stroke-opacity:1" />
  <path
     d="M2.50537 20.3329V17.4796"
     stroke="#D4D4D4"
     stroke-linecap="round"
     id="path8"
     style="fill:#929292;fill-opacity:1;stroke:#607060;stroke-opacity:1" />
  <path
     d="M8.3125 12.6766V9.82336"
     stroke="#D4D4D4"
     stroke-linecap="round"
     id="path10"
     style="fill:#929292;fill-opacity:1;stroke:#607060;stroke-opacity:1" />
</svg>
